public/cloud-icons/azure/identity/azure-ad-risky-sign-in.svg

<?xml version="1.0" encoding="UTF-8" standalone="no"?>
<!-- Generated by Microsoft Visio, SVG Export Azure AD Risky sign-in.svg Page-1 -->

<svg
   xmlns:dc="http://purl.org/dc/elements/1.1/"
   xmlns:cc="http://creativecommons.org/ns#"
   xmlns:rdf="http://www.w3.org/1999/02/22-rdf-syntax-ns#"
   xmlns:svg="http://www.w3.org/2000/svg"
   xmlns="http://www.w3.org/2000/svg"
   xmlns:sodipodi="http://sodipodi.sourceforge.net/DTD/sodipodi-0.dtd"
   xmlns:inkscape="http://www.inkscape.org/namespaces/inkscape"
   width="0.79113555in"
   height="0.78746188in"
   viewBox="0 0 56.961758 56.697396"
   xml:space="preserve"
   class="st4"
   version="1.1"
   id="svg29"
   sodipodi:docname="Azure AD Risky sign-in.svg"
   style="font-size:12px;overflow:visible;color-interpolation-filters:sRGB;fill:none;fill-rule:evenodd;stroke-linecap:square;stroke-miterlimit:3"
   inkscape:version="0.92.5 (2060ec1f9f, 2020-04-08)"><metadata
   id="metadata35"><rdf:RDF><cc:Work
       rdf:about=""><dc:format>image/svg+xml</dc:format><dc:type
         rdf:resource="http://purl.org/dc/dcmitype/StillImage" /></cc:Work></rdf:RDF></metadata><defs
   id="defs33" /><sodipodi:namedview
   pagecolor="#ffffff"
   bordercolor="#666666"
   borderopacity="1"
   objecttolerance="10"
   gridtolerance="10"
   guidetolerance="10"
   inkscape:pageopacity="0"
   inkscape:pageshadow="2"
   inkscape:window-width="640"
   inkscape:window-height="480"
   id="namedview31"
   showgrid="false"
   inkscape:zoom="1.8365233"
   inkscape:cx="37.795184"
   inkscape:cy="18.901991"
   inkscape:window-x="0"
   inkscape:window-y="0"
   inkscape:window-maximized="0"
   inkscape:current-layer="svg29" />
	<style
   type="text/css"
   id="style2">
	<![CDATA[
		.st1 {fill:#57a300;stroke:none;stroke-linecap:butt;stroke-width:0.489424}
		.st2 {fill:#0072c6;stroke:none;stroke-linecap:butt;stroke-width:0.489424}
		.st3 {fill:#ff8c00;stroke:none;stroke-linecap:butt;stroke-width:0.489424}
		.st4 {fill:none;fill-rule:evenodd;font-size:12px;overflow:visible;stroke-linecap:square;stroke-miterlimit:3}
	]]>
	</style>

	<g
   id="g27"
   transform="translate(-5.6693772,-5.6681326)">
		<title
   id="title4">Page-1</title>
		<g
   id="group14589-1"
   transform="translate(5.66929,-34.0157)">
			<title
   id="title6">Azure-Active-Directory-Risky-Sign-in</title>
			<g
   id="group14590-2">
				<title
   id="title8">g16</title>
				<g
   id="shape14591-3"
   transform="translate(0,-16.5648)">
					<title
   id="title10">path10</title>
					<path
   d="M 28.52,81.52 19.03,72.6 h 7.55 L 39.37,84.49 26.78,96.38 h -7.75 l 9.49,-8.92 H 1.7 C 0.73,87.46 0,86.37 0,85.4 v -2.46 c 0,-0.96 0.73,-1.43 1.7,-1.43 z"
   class="st1"
   id="path12"
   inkscape:connector-curvature="0"
   style="fill:#57a300;stroke:none;stroke-width:0.48942399;stroke-linecap:butt" />
				</g>
				<g
   id="shape14592-5"
   transform="translate(3.77134,-0.215907)">
					<title
   id="title15">path12</title>
					<path
   d="m 1.53,54.93 a 4.70288,4.66465 -180 0 0 6.65,-0.1 l 0.11,-0.1 a 19.0156,18.861 0 0 1 26.89,0.28 c 0.08,0.08 0.16,0.16 0.24,0.24 a 18.9207,18.7668 0 0 1 5.29,14.45 4.8393,4.79996 0 0 1 2.15,1.93 l 0.01,0.02 0.01,0.02 4.81,8.29 A 28.4812,28.2497 -180 0 0 41.93,48.14 28.843,28.6085 -180 0 0 21.68,39.9 28.5358,28.3038 -180 0 0 1.43,48.14 c -0.03,0.03 -0.07,0.06 -0.1,0.1 a 4.70288,4.66465 -180 0 0 0.1,6.59 c 0.03,0.04 0.07,0.07 0.1,0.1 z m 20.8,39.4 a 4.90217,4.86232 0 0 1 0.68,-2.35 L 25.99,86.7 A 18.9574,18.8033 0 0 1 8.18,81.44 5.19873,5.15647 -180 0 0 8.08,81.35 4.70288,4.66465 -180 0 0 1.43,81.44 c -0.04,0.04 -0.07,0.07 -0.1,0.1 a 4.70288,4.66465 -180 0 0 0.1,6.6 28.8436,28.6091 -180 0 0 20.25,8.24 c 0.36,0 0.72,-0.01 1.08,-0.02 a 4.57892,4.54169 0 0 1 -0.43,-2.03 z"
   class="st2"
   id="path17"
   inkscape:connector-curvature="0"
   style="fill:#0072c6;stroke:none;stroke-width:0.48942399;stroke-linecap:butt" />
				</g>
				<g
   id="shape14593-7"
   transform="translate(28.7179)">
					<title
   id="title20">path14</title>
					<path
   d="m 27.85,92.94 -5.99,-10 -5.98,-10.32 A 2.22718,2.20907 -180 0 0 13.99,71.45 2.22718,2.20907 -180 0 0 12.1,72.63 L 6.11,82.31 0.12,92.94 a 2.20998,2.19201 -180 0 0 1.89,3.44 h 23.95 a 2.20998,2.19201 -180 0 0 1.89,-3.44 z M 14.3,78.87 h 1.58 l -0.63,9.07 h -2.52 l -0.32,-9.07 z m -0.31,13.75 a 1.89029,1.87492 0 0 1 -1.89,-1.87 1.89029,1.87492 0 0 1 1.89,-1.88 1.89029,1.87492 0 0 1 1.89,1.88 1.89029,1.87492 0 0 1 -1.89,1.87 z"
   class="st3"
   id="path22"
   inkscape:connector-curvature="0"
   style="fill:#ff8c00;stroke:none;stroke-width:0.48942399;stroke-linecap:butt" />
				</g>
			</g>
		</g>
	</g>
</svg>

<svg xmlns="http://www.w3.org/2000/svg" xml:space="preserve" width="75.949" height="75.596" style="font-size:12px;overflow:visible;color-interpolation-filters:sRGB;fill-rule:evenodd;stroke-linecap:square;stroke-miterlimit:3" viewBox="0 0 56.962 56.697"><g transform="translate(-5.67 -5.668)"><title>Page-1</title><g transform="translate(5.67 -34.016)"><title>Azure-Active-Directory-Risky-Sign-in</title><title>g16</title><g transform="translate(0 -16.565)"><title>path10</title><path d="m28.52 81.52-9.49-8.92h7.55l12.79 11.89-12.59 11.89h-7.75l9.49-8.92H1.7c-.97 0-1.7-1.09-1.7-2.06v-2.46c0-.96.73-1.43 1.7-1.43z" style="fill:#57a300;stroke:none;stroke-width:.48942399;stroke-linecap:butt"/></g><g transform="translate(3.771 -.216)"><title>path12</title><path d="M1.53 54.93a4.703 4.665-180 0 0 6.65-.1l.11-.1a19.016 18.861 0 0 1 26.89.28l.24.24a18.92 18.767 0 0 1 5.29 14.45 4.84 4.8 0 0 1 2.15 1.93l.01.02.01.02 4.81 8.29a28.481 28.25-180 0 0-5.76-31.82 28.843 28.609-180 0 0-20.25-8.24 28.536 28.304-180 0 0-20.25 8.24c-.03.03-.07.06-.1.1a4.703 4.665-180 0 0 .1 6.59c.03.04.07.07.1.1m20.8 39.4a4.902 4.862 0 0 1 .68-2.35l2.98-5.28a18.957 18.803 0 0 1-17.81-5.26 5.199 5.156-180 0 0-.1-.09 4.703 4.665-180 0 0-6.65.09l-.1.1a4.703 4.665-180 0 0 .1 6.6 28.844 28.61-180 0 0 20.25 8.24c.36 0 .72-.01 1.08-.02a4.579 4.542 0 0 1-.43-2.03" style="fill:#0072c6;stroke:none;stroke-width:.48942399;stroke-linecap:butt"/></g><g transform="translate(28.718)"><title>path14</title><path d="m27.85 92.94-5.99-10-5.98-10.32a2.227 2.21-180 0 0-1.89-1.17 2.227 2.21-180 0 0-1.89 1.18l-5.99 9.68L.12 92.94a2.21 2.192-180 0 0 1.89 3.44h23.95a2.21 2.192-180 0 0 1.89-3.44M14.3 78.87h1.58l-.63 9.07h-2.52l-.32-9.07zm-.31 13.75a1.89 1.875 0 0 1-1.89-1.87 1.89 1.875 0 0 1 1.89-1.88 1.89 1.875 0 0 1 1.89 1.88 1.89 1.875 0 0 1-1.89 1.87" style="fill:#ff8c00;stroke:none;stroke-width:.48942399;stroke-linecap:butt"/></g></g></g></svg>
